common/src/main/resources/files/plugins/datagrip/yugabyteFileType.svg

<!--
  - The MIT License (MIT)
  -
  - Copyright (c) 2015-2024 Elior "Mallowigi" Boukhobza
  -
  - Permission is hereby granted, free of charge, to any person obtaining a copy
  - of this software and associated documentation files (the "Software"), to deal
  - in the Software without restriction, including without limitation the rights
  - to use, copy, modify, merge, publish, distribute, sublicense, and/or sell
  - copies of the Software, and to permit persons to whom the Software is
  - furnished to do so, subject to the following conditions:
  -
  - The above copyright notice and this permission notice shall be included in all
  - copies or substantial portions of the Software.
  -
  - THE SOFTWARE IS PROVIDED "AS IS", WITHOUT WARRANTY OF ANY KIND, EXPRESS OR
  - IMPLIED, INCLUDING BUT NOT LIMITED TO THE WARRANTIES OF MERCHANTABILITY,
  - FITNESS FOR A PARTICULAR PURPOSE AND NONINFRINGEMENT. IN NO EVENT SHALL THE
  - AUTHORS OR COPYRIGHT HOLDERS BE LIABLE FOR ANY CLAIM, DAMAGES OR OTHER
  - LIABILITY, WHETHER IN AN ACTION OF CONTRACT, TORT OR OTHERWISE, ARISING FROM,
  - OUT OF OR IN CONNECTION WITH THE SOFTWARE OR THE USE OR OTHER DEALINGS IN THE
  - SOFTWARE.
  -->
<svg data-big="true" width="16px" height="16px" viewBox="0 0 16 16" fill="#7E57C2" xmlns="http://www.w3.org/2000/svg">
  <path fill-rule="evenodd" clip-rule="evenodd"
        d="M11.6468 3.80222C10.6488 2.94453 9.37113 2.4697 8.04501 2.47342C6.57625 2.4693 5.16693 3.05218 4.13131 4.09207C3.08973 5.12618 2.50594 6.53347 2.51016 8.00005C2.50919 8.67807 2.63382 9.3504 2.87776 9.98314C2.51833 10.3386 2.17752 10.7123 1.85668 11.1028C1.66045 11.3424 1.4797 11.5942 1.31554 11.8567C1.22879 11.9945 1.15448 12.1397 1.09348 12.2907C1.05902 12.3746 1.03296 12.4617 1.01566 12.5508C0.992496 12.6601 0.995059 12.7733 1.02315 12.8814C1.0301 12.9083 1.03993 12.9343 1.05246 12.9591L1.06027 12.9757C1.06321 12.9818 1.06647 12.9878 1.07004 12.9935C1.08657 13.0222 1.10587 13.0492 1.12767 13.0742C1.17624 13.1298 1.23635 13.1741 1.30382 13.2042C1.4068 13.2474 1.51773 13.2686 1.62941 13.2663C1.80299 13.2609 1.97504 13.2321 2.14093 13.1808C2.44251 13.0892 2.73645 12.9742 3.02004 12.8368C3.47335 12.6163 3.91511 12.3728 4.34359 12.1073C5.35877 13.0227 6.67846 13.5286 8.04631 13.5267C9.515 13.5307 10.9243 12.9478 11.96 11.908C13.0015 10.8739 13.5852 9.46663 13.5811 8.00005C13.5823 7.55704 13.5298 7.11945 13.4273 6.69594C13.3792 6.83709 13.3224 6.95033 13.2558 7.00815L12.9672 7.25889C13.0037 7.50318 13.0221 7.75131 13.0214 8.00135C13.0249 9.31988 12.5002 10.585 11.564 11.515C10.6328 12.4497 9.36581 12.9738 8.04533 12.9705C6.86991 12.9712 5.73237 12.5557 4.83494 11.7978C5.27154 11.5108 5.70298 11.2136 6.11842 10.911C6.68887 10.4903 7.14569 10.1382 7.55463 9.80271C8.00496 9.43795 8.46894 9.04231 8.93519 8.62456L8.99409 8.56962C9.40794 8.1834 9.83577 7.78354 10.2477 7.38107C10.2921 7.33692 10.2949 7.26608 10.2542 7.21852C10.2125 7.17144 10.1414 7.16452 10.0914 7.20259C9.68477 7.51648 9.28 7.84238 8.8862 8.15946C8.84073 8.19607 8.7954 8.23256 8.75024 8.26891L8.67927 8.32612C8.27258 8.64797 7.83272 8.98574 7.25574 9.4204L7.20366 9.45909L7.16668 9.48646C6.72236 9.81539 6.26421 10.1546 5.80356 10.474C5.27089 10.8479 4.8284 11.1454 4.41946 11.4041C3.5497 10.4844 3.06632 9.26663 3.06888 8.00168C3.06546 6.68321 3.59034 5.41816 4.52658 4.48837C5.45779 3.55354 6.72482 3.02946 8.04533 3.03291C9.04804 3.03022 10.0199 3.33171 10.8374 3.88626C11.0536 3.82696 11.3657 3.80654 11.6468 3.80222ZM3.9366 11.7036C3.54958 11.2768 3.23206 10.792 2.99562 10.267C2.68565 10.6489 2.42127 10.9864 2.17218 11.3407C2.00101 11.5771 1.84464 11.8238 1.70398 12.0794C1.63729 12.1998 1.58004 12.3253 1.53271 12.4545C1.51178 12.5111 1.49651 12.5695 1.48713 12.6291C1.47952 12.6648 1.47952 12.7017 1.48713 12.7374C1.48822 12.7391 1.48942 12.7407 1.49071 12.7422C1.49101 12.7422 1.49203 12.7427 1.49379 12.7436C1.49579 12.7446 1.49877 12.746 1.50276 12.7478C1.53944 12.7582 1.57772 12.762 1.61574 12.7588C1.74337 12.7495 1.8693 12.7241 1.9905 12.6831C2.26209 12.5924 2.52628 12.481 2.78073 12.3498C3.13856 12.1717 3.51788 11.9597 3.9366 11.7036Z"
  />
  <path
    d="M14.9997 2.84267C14.9997 2.84267 13.6742 2.63136 13.2317 3.0153L12.4203 3.71946L12.3451 3.78447L12.307 3.81698C12.307 3.81698 10.9226 3.72531 10.623 3.98506L10.3147 4.25294L10.2004 4.35047L10.077 4.45775L10.0444 4.48506L10.6859 5.22173C10.4879 5.39338 10.6299 5.88005 11.003 6.30854C11.3761 6.73702 11.8388 6.94508 12.0368 6.7731L12.6782 7.50977L12.6981 7.49254L12.9475 7.27603L13.2558 7.00815C13.5553 6.74807 13.6569 5.36672 13.6569 5.36672L13.7338 5.30008L13.7963 5.24611L14.582 4.56341C15.0235 4.18337 14.9997 2.84267 14.9997 2.84267Z"
  />
</svg>

<svg xmlns="http://www.w3.org/2000/svg" width="16" height="16" fill="#7E57C2" data-big="true"><path fill-rule="evenodd" d="M11.647 3.802a5.5 5.5 0 0 0-3.602-1.329 5.5 5.5 0 0 0-3.914 1.62A5.49 5.49 0 0 0 2.511 8a5.5 5.5 0 0 0 .367 1.983q-.54.534-1.021 1.12-.295.36-.541.754a3 3 0 0 0-.223.434q-.051.125-.077.26a.7.7 0 0 0 .007.33.4.4 0 0 0 .03.078l.007.017.01.017a.5.5 0 0 0 .234.211.8.8 0 0 0 .325.062q.262-.008.512-.085.453-.138.879-.344.68-.33 1.324-.73a5.52 5.52 0 0 0 3.702 1.42 5.5 5.5 0 0 0 3.914-1.619A5.49 5.49 0 0 0 13.581 8a5.5 5.5 0 0 0-.154-1.304c-.048.141-.105.254-.171.312l-.289.25q.056.368.054.743a4.93 4.93 0 0 1-1.457 3.514 4.95 4.95 0 0 1-3.519 1.455 4.97 4.97 0 0 1-3.21-1.172 33 33 0 0 0 2.72-1.995c.45-.365.914-.76 1.38-1.178l.06-.055c.413-.387.84-.786 1.253-1.189a.12.12 0 0 0 .006-.162.12.12 0 0 0-.163-.016 75 75 0 0 0-1.34 1.066l-.072.057c-.406.322-.846.66-1.423 1.094l-.052.04-.037.026c-.445.33-.903.669-1.363.988-.533.374-.976.671-1.385.93a4.94 4.94 0 0 1-1.35-3.402 4.93 4.93 0 0 1 1.458-3.514 4.95 4.95 0 0 1 3.518-1.455 4.95 4.95 0 0 1 2.792.853c.217-.059.529-.08.81-.084m-7.71 7.902a5.5 5.5 0 0 1-.941-1.437c-.31.382-.575.72-.824 1.074a7 7 0 0 0-.468.738 3 3 0 0 0-.171.375 1 1 0 0 0-.046.175.3.3 0 0 0 0 .108l.004.005.003.002.009.004q.055.015.113.01.192-.013.374-.075.409-.136.79-.333a15 15 0 0 0 1.157-.646" clip-rule="evenodd"/><path d="M15 2.843s-1.326-.212-1.768.172l-.812.704-.075.065-.038.033s-1.384-.092-1.684.168l-.308.268-.115.097-.123.108-.033.027.642.737c-.198.171-.056.658.317 1.087s.836.636 1.034.464l.641.737.02-.017.25-.217.308-.268c.3-.26.4-1.641.4-1.641l.078-.067.062-.054.786-.683c.441-.38.418-1.72.418-1.72"/></svg>
